src/dsmComponents/Icons/device-mobile-16px.svg

<?xml version="1.0" encoding="UTF-8"?>
<svg width="10px" height="16px" viewBox="0 0 10 16" version="1.1" xmlns="http://www.w3.org/2000/svg" xmlns:xlink="http://www.w3.org/1999/xlink">
    <!-- Generator: Sketch 59.1 (86144) - https://sketch.com -->
    <title>device-mobile-16px</title>
    <desc>Created with Sketch.</desc>
    <defs>
        <path d="M8,0 C9.1045695,-2.02906125e-16 10,0.8954305 10,2 L10,14 C10,15.1045695 9.1045695,16 8,16 L2,16 C0.8954305,16 1.3527075e-16,15.1045695 0,14 L0,2 C-1.3527075e-16,0.8954305 0.8954305,2.02906125e-16 2,0 L8,0 Z M7.52271532,1.54496028 L2.51738035,1.54496028 L2.40075923,1.55168802 C1.90342054,1.60945312 1.51738035,2.03212444 1.51738035,2.54496028 L1.51738035,2.54496028 L1.51738035,13.5 C1.51738035,14.0522847 1.9650956,14.5 2.51738035,14.5 L2.51738035,14.5 L7.52271532,14.5 L7.63933645,14.4932723 C8.13667513,14.4355072 8.52271532,14.0128358 8.52271532,13.5 L8.52271532,13.5 L8.52271532,2.54496028 C8.52271532,1.99267553 8.07500007,1.54496028 7.52271532,1.54496028 L7.52271532,1.54496028 Z M3.5,12.5 L6.5,12.5 C6.77614237,12.5 7,12.7238576 7,13 C7,13.2761424 6.77614237,13.5 6.5,13.5 L3.5,13.5 C3.22385763,13.5 3,13.2761424 3,13 C3,12.7238576 3.22385763,12.5 3.5,12.5 Z" id="path-1"></path>
    </defs>
    <g id="Final" stroke="none" stroke-width="1" fill="none" fill-rule="evenodd">
        <g id="All-Nucleo-Icons" transform="translate(-322.000000, -2077.000000)">
            <g id="Solo/Nucleo/16px/device-mobile" transform="translate(315.000000, 2073.000000)">
                <g id="phone-button-(custom)" transform="translate(7.000000, 4.000000)">
                    <g id="Colour/Default-Colour">
                        <mask id="mask-2" fill="white">
                            <use xlink:href="#path-1"></use>
                        </mask>
                        <g id="Mask" fill-rule="nonzero"></g>
                        <g id="colour/neutral/chia" mask="url(#mask-2)" fill="#737373">
                            <g transform="translate(-27.000000, -25.000000)" id="Colour">
                                <rect x="0" y="0" width="64" height="64"></rect>
                            </g>
                        </g>
                    </g>
                </g>
            </g>
        </g>
    </g>
</svg>

<svg width="10" height="16" xmlns="http://www.w3.org/2000/svg" xmlns:xlink="http://www.w3.org/1999/xlink"><defs><path d="M8 0a2 2 0 012 2v12a2 2 0 01-2 2H2a2 2 0 01-2-2V2a2 2 0 012-2h6zm-.477 1.545H2.517l-.116.007a1 1 0 00-.884.993V13.5a1 1 0 001 1h5.006l.116-.007a1 1 0 00.884-.993V2.545a1 1 0 00-1-1zM3.5 12.5h3a.5.5 0 110 1h-3a.5.5 0 110-1z" id="device-mobile-16px_svg__a"/></defs><use fill="#737373" xlink:href="#device-mobile-16px_svg__a" fill-rule="evenodd"/></svg>
